X:1
T:Title
%%score { 1 | 2 }
L:1/8
Q:1/4=98
M:4/4
K:D
V:1 treble nm="Grand Piano"
V:2 bass 
V:1
 [FA]2 [FA]>[FA] [FA]2 [FA]2 | [Fd]2 [DF]2 [FA]3 [FA] | [DGB]3 [DA] [CGA][A,FA][A,EG][A,DF] | %3
w: Geo.~C.~Hugg * * * *|||
 [CE]6 z2 | [FA]2 [FA]>[FA] [FA]2 [FA]2 | [Fd]2 [DF]2 [FA]3 [FA] | [DGB]3 [DGB] [CEA][DA][CA]C | %7
w: ||||
 D6 z2 | [FA]4 [Fd]3 [Ge] | c6 B2 | G3 A c2 B2 | [FA]6 z2 | D3 E F2 G2 | A6 D[DE] | %14
w: |||||||
 [DF]3 [DG] [CE]3 [CF] | D6 z2 |] %16
w: ||
V:2
 [D,D]2 [D,D]>[D,D] [D,D]2 [D,D]2 | [D,A,]2 [D,A,]2 [D,D]3 [D,D] | G,3 F, E,D,C,D, | A,6 z2 | %4
 [D,D]2 [D,D]>[D,D] [D,D]2 [D,D]2 | [D,A,]2 [D,A,]2 [D,D]3 [D,D] | %6
 G,3 G, A,,[A,,F,][A,,E,][A,,G,] | [D,F,]6 z2 | [D,D]4 [D,A,]3 [D,A,] | [A,G]6 [A,CG]2 | %10
 [A,CE]3 [A,DF] [A,EG]2 [A,EG]2 | [D,D]6 z2 | [D,F,]3 [D,G,D] [D,A,D]2 [D,E,D]2 | %13
 [D,F,D]6 [B,,^G,][B,,G,] | [A,,A,]3 [A,,A,] [A,,G,]3 [A,,G,] | [D,F,]6 z2 |] %16

